X:93
T:La Marche de Forbin
R:Marche
C:Andr? GABRIEL
I:abc2nwc
Z:Transcrit et/ou corrig? par Michel BELLON - 2005-06-26
Z:Pour toute observation mailto:galouvielle@free.fr
M:2/4
L:1/16
K:Bb
V:1
f6d2|B4d2f2|e2c2 e2g2|f2d2 B4|f6d2|B4d2f2|e2c2 f2A2|c4B4:|
c4A2c2|f4=e2d2|c4d2A2|c4B4|B4G2B2|g4f2=e2|d4c2B2|
A8|c4A2c2|f4=e2d2|c4d2A2|c4B4|B4G2B2|g4f2=e2|d4c2=e2|f8||
B4d2f2|e4d2c2|B4d4|d4c4|B4d2f2|e4d2c2|B4d4|c8|
B4d2f2|e4d2c2|B4d4|d4c4|B4d2f2|e4d2c2|B2d2 f2d2|c8||
G4B2d2|g4^f2g2|d4e2d2|d4c4|B2c2 d2e2|
f4d4|c4B4|A8|G4B2d2|g4^f2g2|d4e2d2|
d4c4|B2c2 d2e2|f2e2 g2f2|e2d2 c2B2|c8|]
V:2
d6B2|d4B2d2|c2A2 c2c2|d4d4|d6B2|d4B2d2|c2A2 d2c2|e4d4:|
A4A4|c4c2B2|A4A4|A4B4|G4G4|B4c4|B4G4|
A8|A4A4|c4c2B2|A4A4|A4B4|G4G4|B4c4|B4G4|A8||
d4B2B2|c4A2A2|G4B4|B4A4|d4B2B2|c4A2A2|d4B4|
A8|d4B2B2|c4A2A2|G4B4|B4A4|d4B2B2|c4A2A2|d4B4|A8||
B4G2B2|B4A2B2|B4B4|B4A4|G4G4|A4A4|A4G4|A2c2 B2A2|
B4G2B2|B4A2B2|B4B4|B4A4|G4G4|A4B4|c2B2 A2G2|A8|]
<end>
<start>
